img/svg/responsibility-icon.svg

<svg width="80" height="80" viewBox="0 0 80 80" fill="none" xmlns="http://www.w3.org/2000/svg">
<circle cx="40" cy="40" r="40" fill="#0055FF" fill-opacity="0.03"/>
<path fill-rule="evenodd" clip-rule="evenodd" d="M43.2315 40C43.6559 40 44 40.3369 44 40.7525V57.2475C44 57.6631 43.6559 58 43.2315 58H34.7685C34.3441 58 34 57.6631 34 57.2475C34 56.8319 34.3441 56.495 34.7685 56.495H42.463V40.7525C42.463 40.3369 42.807 40 43.2315 40Z" fill="#0084FF"/>
<path fill-rule="evenodd" clip-rule="evenodd" d="M51.2315 32C51.6559 32 52 32.3384 52 32.7558V57.2442C52 57.6616 51.6559 58 51.2315 58H42.7685C42.3441 58 42 57.6616 42 57.2442V40.6778C42 40.2604 42.3441 39.922 42.7685 39.922C43.193 39.922 43.537 40.2604 43.537 40.6778V56.4885H50.463V32.7558C50.463 32.3384 50.807 32 51.2315 32Z" fill="#0084FF"/>
<path fill-rule="evenodd" clip-rule="evenodd" d="M35.2315 41C35.6559 41 36 41.3347 36 41.7476V57.2524C36 57.6653 35.6559 58 35.2315 58H26.7685C26.3441 58 26 57.6653 26 57.2524V48.422C26 48.0091 26.3441 47.6744 26.7685 47.6744C27.193 47.6744 27.537 48.0091 27.537 48.422V56.5048H34.463V41.7476C34.463 41.3347 34.807 41 35.2315 41Z" fill="#0084FF"/>
<path fill-rule="evenodd" clip-rule="evenodd" d="M48.2516 22.7568C48.2516 22.3388 48.587 22 49.0007 22H57.2508C57.6646 22 58 22.3388 58 22.7568V31.0901C58 31.508 57.6646 31.8468 57.2508 31.8468H54.2511C53.8373 31.8468 53.5019 31.508 53.5019 31.0901V27.9299C53.5019 27.512 53.8373 27.1731 54.2511 27.1731C54.6648 27.1731 55.0002 27.512 55.0002 27.9299V30.3333H56.5016V23.5135H49.7499V25.03H52.1294C52.4369 25.03 52.7132 25.2199 52.8262 25.5089C52.9391 25.7978 52.8658 26.1271 52.6412 26.3394L39.012 39.2193C38.7169 39.4981 38.2561 39.4904 37.9704 39.2018L34.3751 35.5702L23.2789 46.7784C22.9864 47.0739 22.512 47.0739 22.2194 46.7784C21.9269 46.4828 21.9269 46.0037 22.2194 45.7081L33.8453 33.9649C34.1379 33.6694 34.6123 33.6694 34.9049 33.9649L38.5175 37.614L50.232 26.5435H49.0007C48.587 26.5435 48.2516 26.2047 48.2516 25.7868V22.7568Z" fill="#0084FF"/>
</svg>

<svg width="80" height="80" viewBox="0 0 80 80" fill="none" xmlns="http://www.w3.org/2000/svg"><circle cx="40" cy="40" r="40" fill="#05F" fill-opacity=".03"/><path fill-rule="evenodd" clip-rule="evenodd" d="M43.231 40a.76.76 0 01.769.752v16.495a.76.76 0 01-.769.753H34.77a.76.76 0 01-.769-.752.76.76 0 01.769-.753h7.694V40.753a.76.76 0 01.768-.753z" fill="#0084FF"/><path fill-rule="evenodd" clip-rule="evenodd" d="M51.231 32c.425 0 .769.338.769.756v24.488a.762.762 0 01-.769.756H42.77a.762.762 0 01-.769-.756V40.678c0-.418.344-.756.769-.756.424 0 .768.338.768.756v15.81h6.926V32.757c0-.418.344-.756.768-.756zm-16 9c.425 0 .769.335.769.748v15.504a.758.758 0 01-.769.748h-8.463a.758.758 0 01-.768-.748v-8.83c0-.413.344-.748.768-.748.425 0 .769.335.769.748v8.083h6.926V41.748c0-.413.344-.748.768-.748z" fill="#0084FF"/><path fill-rule="evenodd" clip-rule="evenodd" d="M48.252 22.757c0-.418.335-.757.749-.757h8.25c.414 0 .749.339.749.757v8.333a.753.753 0 01-.75.757h-2.999a.753.753 0 01-.75-.757v-3.16c0-.418.336-.757.75-.757s.75.339.75.757v2.403h1.5v-6.82H49.75v1.517h2.38a.75.75 0 01.696.479.762.762 0 01-.185.83L39.012 39.22a.744.744 0 01-1.042-.017l-3.595-3.632L23.28 46.778a.744.744 0 01-1.06 0 .762.762 0 010-1.07l11.626-11.743a.744.744 0 011.06 0l3.612 3.649 11.715-11.07h-1.231a.753.753 0 01-.75-.757v-3.03z" fill="#0084FF"/></svg>
